X:461
T:B461-  There is one Black and Sullen Hour
Q:1/4=120
L:1/4
M:C|
K:Gm
G/|G3/2A/B(c/d/)|(c/B/) (A/G/)d3/2d/|(dc3/4)c/4 (e/d/) (c/B/)|\
(A/B/) (A/G/)^F2|AA/A/dA|B(A/G/)c2|df/=e/dA|\
(G/F/) (=E/D/)D3/2||d/|(dc/)c/=BB|(d/4e/4f/) (e/d/)e(d/c/)|\
c3/2":s:"d/gf|edd3/2c/|d3/2d/ (c/4d/4e/)d|cBB3/2A/|\
B3/2":s:"B/c3/2d/|(c/4d/4e/) (d/c/) (c/B/) (A/G/)|G3z/|]
